X:6723
T:the Dublin Jig
O:england
R:Slip jig
M:9/8
L:1/8
K:A
f|\
ecA ABA agf | ecA FBA GFE |\
ecA Ace agf | ecA FBG A2:|
|:c|\
BGE EGB dcB | cAc efg aec |\
BGE EGB dcB | cde dBG A2:|


